svg/part/lungs_line.svg

<svg xmlns="http://www.w3.org/2000/svg" width="24" height="24" viewBox="0 0 24 24"><g fill="none" fill-rule="evenodd"><path d="M24,0 L24,24 L0,24 L0,0 L24,0 Z M12.5935,23.2578 L12.5819,23.2595 L12.5109,23.295 L12.4919,23.2987 L12.4767,23.295 L12.4057,23.2595 C12.3958,23.2564 12.387,23.259 12.3821,23.2649 L12.378,23.2758 L12.3609,23.7031 L12.3659,23.7235 L12.3769,23.7357 L12.4805,23.8097 L12.4953,23.8136 L12.5071,23.8097 L12.6107,23.7357 L12.6233,23.7197 L12.6267,23.7031 L12.6096,23.2758 C12.6076,23.2657 12.601,23.2593 12.5935,23.2578 Z M12.8584,23.1453 L12.8445,23.1473 L12.6598,23.2397 L12.6499,23.2499 L12.6472,23.2611 L12.6651,23.6906 L12.6699,23.7034 L12.6784,23.7105 L12.8793,23.8032 C12.8914,23.8069 12.9022,23.803 12.9078,23.7952 L12.9118,23.7812 L12.8777,23.1665 C12.8753,23.1546 12.8674,23.147 12.8584,23.1453 Z M12.143,23.1473 C12.1332,23.1424 12.1222,23.1453 12.1156,23.1526 L12.1099,23.1665 L12.0758,23.7812 C12.0751,23.7927 12.0828,23.8019 12.0926,23.8046 L12.1083,23.8032 L12.3092,23.7105 L12.3186,23.7024 L12.3225,23.6906 L12.3404,23.2611 L12.3372,23.2485 L12.3278,23.2397 L12.143,23.1473 Z"/><path fill="#09244B" d="M10.1368,6.73945 L10.3052,8.92807 L10.5548,8.76168 C10.833,8.57622 11.0001,8.26399 11.0001,7.92963 L11.0001,4 C11.0001,3.44772 11.4478,3 12.0001,3 C12.5524,3 13.0001,3.44772 13.0001,4 L13.0001,7.92963 C13.0001,8.26399 13.1672,8.57622 13.4454,8.76168 L13.6949,8.92807 L13.8633,6.73945 C13.9843,5.16592 15.7949,4.34593 17.0574,5.29284 L17.642,5.73129 C19.1064,6.82956 20.0823,8.45773 20.3606,10.2669 L21.4404,17.2857 C21.7985,19.6132 19.458,21.4269 17.2936,20.4993 L16.2383,20.0471 C14.271,19.2039 13.0585,17.202 13.2227,15.0679 L13.5194,11.2103 C13.4943,11.1965 13.4696,11.1815 13.4454,11.1654 L12.336,10.4258 C12.2171,10.3465 12.105,10.2595 12.0001,10.1658 C11.8952,10.2595 11.7831,10.3465 11.6642,10.4258 L10.5548,11.1654 C10.5305,11.1815 10.5058,11.1965 10.4808,11.2103 L10.7775,15.0679 C10.9417,17.202 9.72919,19.2039 7.76181,20.0471 L6.70659,20.4993 C4.54211,21.4269 2.20164,19.6132 2.55972,17.2857 L3.63953,10.2669 C3.91786,8.45773 4.89378,6.82956 6.35813,5.73129 L6.94274,5.29284 C8.20528,4.34593 10.0158,5.16592 10.1368,6.73945 Z M8.14274,6.89284 L7.55813,7.33129 C6.51216,8.11577 5.81508,9.27875 5.61628,10.571 L4.53646,17.5898 C4.4171,18.3656 5.19726,18.9702 5.91875,18.661 L6.97398,18.2088 C8.1544,17.7029 8.88188,16.5017 8.78338,15.2212 L8.14274,6.89284 Z M16.442,7.33129 L15.8574,6.89284 L15.2168,15.2212 C15.1183,16.5017 15.8458,17.7029 17.0262,18.2088 L18.0814,18.661 C18.8029,18.9702 19.583,18.3656 19.4637,17.5898 L18.3839,10.571 C18.1851,9.27875 17.488,8.11577 16.442,7.33129 Z"/></g></svg>

<svg xmlns="http://www.w3.org/2000/svg" width="24" height="24"><g fill="none" fill-rule="evenodd"><path d="M24 0v24H0V0zM12.594 23.258l-.012.002-.071.035-.02.004-.014-.004-.071-.036c-.01-.003-.019 0-.024.006l-.004.01-.017.428.005.02.01.013.104.074.015.004.012-.004.104-.074.012-.016.004-.017-.017-.427c-.002-.01-.009-.017-.016-.018m.264-.113-.014.002-.184.093-.01.01-.003.011.018.43.005.012.008.008.201.092c.012.004.023 0 .029-.008l.004-.014-.034-.614c-.003-.012-.01-.02-.02-.022m-.715.002a.023.023 0 0 0-.027.006l-.006.014-.034.614c0 .012.007.02.017.024l.015-.002.201-.093.01-.008.003-.011.018-.43-.003-.012-.01-.01z"/><path fill="#09244B" d="m10.137 6.74.168 2.188.25-.166A1 1 0 0 0 11 7.93V4a1 1 0 1 1 2 0v3.93a1 1 0 0 0 .445.832l.25.166.168-2.189c.121-1.573 1.932-2.393 3.194-1.446l.585.438a7 7 0 0 1 2.719 4.536l1.08 7.019c.358 2.327-1.983 4.14-4.147 3.213l-1.056-.452a5 5 0 0 1-3.015-4.98l.296-3.857a1.027 1.027 0 0 1-.074-.045l-1.109-.74a3.017 3.017 0 0 1-.336-.26c-.105.095-.217.182-.336.26l-1.11.74a1.072 1.072 0 0 1-.073.045l.297 3.858a5 5 0 0 1-3.016 4.98l-1.055.451c-2.165.928-4.505-.886-4.147-3.213l1.08-7.02a7 7 0 0 1 2.718-4.535l.585-.438c1.262-.947 3.073-.127 3.194 1.446m-1.994.153-.585.438a5 5 0 0 0-1.942 3.24l-1.08 7.019A1 1 0 0 0 5.92 18.66l1.055-.452a3 3 0 0 0 1.81-2.988zm8.299.438-.585-.438-.64 8.328a3 3 0 0 0 1.81 2.988l1.054.452a1 1 0 0 0 1.383-1.071l-1.08-7.019a5 5 0 0 0-1.942-3.24"/></g></svg>
